outputs/icons/hardware/device_settings_sharp.svg

<svg width="1200" height="1200" viewBox="0 0 1200 1200" fill="none" xmlns="http://www.w3.org/2000/svg"><g clip-path="url(#clip0_648_1682)"><path d="M349.99 50V300H449.99V200H949.99V1000H449.99V900H349.99V1150H1049.99V50H349.99ZM474.99 775C489.49 769 502.49 760.5 514.99 751L513.99 752.5L584.49 780L647.99 670L588.99 622.5L587.99 624C588.99 616 590.49 608 590.49 600C590.49 592 588.99 584 587.99 576L588.99 577.5L647.99 530L584.99 420L514.49 447.5L515.49 449C502.49 439.5 489.49 431 474.99 425L463.49 350H336.49L324.99 425C310.49 431 297.489 439.5 284.989 449L285.989 447.5L214.989 420L151.49 530L210.489 577.5L211.49 576C210.989 584 209.49 592 209.49 600C209.49 608 210.989 616 211.989 624L210.989 622.5L151.989 670L215.489 780L285.989 752.5L284.989 751C297.489 760.5 310.49 769 324.99 775L336.49 850H463.49L474.99 775ZM299.99 600C299.99 545 344.99 500 399.99 500C454.99 500 499.99 545 499.99 600C499.99 655 454.99 700 399.99 700C344.99 700 299.99 655 299.99 600Z" fill="#1D1E23"/></g><defs><clipPath id="clip0_648_1682"><path width="24" fill="white" d="M0 0H1200V1200H0V0z"/></clipPath></defs></svg>

<svg xmlns="http://www.w3.org/2000/svg" width="1200" height="1200" fill="none"><g clip-path="url(#a)"><path fill="#000" d="M349.99 50v250h100V200h500v800h-500V900h-100v250h700V50zm125 725c14.5-6 27.5-14.5 40-24l-1 1.5 70.5 27.5 63.5-110-59-47.5-1 1.5c1-8 2.5-16 2.5-24s-1.5-16-2.5-24l1 1.5 59-47.5-63-110-70.5 27.5 1 1.5c-13-9.5-26-18-40.5-24l-11.5-75H336.489l-11.499 75c-14.5 6-27.5 14.5-40 24l.999-1.5-71-27.5-63.499 110 58.999 47.5 1-1.5c-.5 8-1.999 16-1.999 24s1.499 16 2.5 24l-1.001-1.5-59 47.5 63.5 110 70.5-27.5-.999-1.5c12.5 9.5 25.5 18 40 24l11.499 75H463.49zm-175-175c0-55 45-100 100-100s100 45 100 100-45 100-100 100-100-45-100-100"/></g><defs><clipPath id="a"><path fill="#fff" d="M0 0h1200v1200H0z"/></clipPath></defs></svg>
